X: 2
T: The Mist On The Mountain
R: waltz
M: 3/4
L: 1/8
K: Ador
A2A A>BA|e2e e>dB|G2G G2A|B>AB A>GE|c2c d2d|e>fg B>AG|A>Be d>cB|A3 A3:|e2e e2e|d>eg B>AG|G2G d2B|e2e d>cB|c2c d2d|e>fg B>AG|A>Be d>cB|A3 A3:|


Tune 470	Setting 470

